X:1
T:Gibbons, 76.76 D
T:Gibbons, 76.76 D
T:Edmund Sedding, 1861
T:Public Domain Courtesy of the Cyber Hymnal™
C:Edmund Sedding, 1861
Z:Public Domain
Z:Courtesy of the Cyber Hymnal™
%%score ( 1 2 ) ( 3 4 )
L:1/8
Q:1/4=110
M:4/4
K:F
V:1 treble 
V:2 treble 
V:3 bass 
V:4 bass 
V:1
 [CF]2 | [DF]2 [CF]2 G2 [FA]2 | ([FB]2 [EG]2) [FA]2 [EG]2 | [Ec]2 [DA]2 B2 A2 | [EG]6 [EG]2 | %5
 [FA]2 [FB]2 [Gc]2 [FA]2 | G4 F2 [DF]2 | [DB]2 [CG]2 [CA]2 [DF]2 | [EG]6 [_EG]2 | %9
 G2 z [GB]2 [=Fd]2 x | c4 [DB]2 d2 | [Ed]2 [Fc]2 (cB) [EG]2 | [FA]6 [CF]2 | %13
 [CA]2 [Gc]2 [^Fc]2 [GB]2 | A4 D2 [DG]2 x | G2 [CF]2 [CF]2 [CE]2 | [CF]6 |] %17
V:2
 x2 | x4 (DE) x2 | x8 | x4 (DE) (FD) | x8 | x8 | (D2 E2) F2 x2 | x8 | x8 | (DG) (A2 ^F) x3 | %10
 (G2 F2) (GF) x2 | x4 F2 x2 | x8 | x8 | (_E2 D2) D2 x3 | (DC) x6 | x6 |] %17
V:3
 [F,A,]2 | [D,A,]2 [A,,C]2 [B,,B,]2 [A,,C]2 | ([G,,D]2 [C,C]2) [F,,C]2 [C,C]2 | %3
 [A,,C]2 [D,F,]2 (F,G,) (A,B,) | [C,C]6 [C,C]2 | [F,C]2 [D,D]2 [E,G,]2 [F,C]2 | %6
 B,4 [D,A,]2 [D,A,]2 | G,2 [E,G,]2 (F,C) (C=B,) | [C,C]6 [C,G,]2 | [B,,D]2 [D,D]2 [G,D]2 [D,B,]2 | %10
 ([_E,B,]2 [F,A,]2) [B,,B,]2 [B,,B,]2 | [C,G,]2 A,2 [C,G,]2 [C,C]2 | [F,C]6 ([A,C][G,B,]) | %13
 [F,A,]2 [_E,G,]2 [D,A,]2 [G,B,]2 | C3 (z ^A,) [G,B,]2 [=F,B,]2 | [E,B,]2 [F,A,]2 (G,F,) [C,G,]2 | %16
 [F,,A,]6 |] %17
V:4
 x2 | x8 | x8 | x4 B,,2 F,2 | x8 | x8 | (B,,2 C,2) x4 | G,2 F,2 D,2 x2 | x8 | x8 | x8 | %11
 x2 (A,,B,,) x4 | x8 | x8 | G,2 ^F,2 x5 | x4 C,2 x2 | x6 |] %17

